icons/package-dependencies-16.svg

<svg xmlns="http://www.w3.org/2000/svg" width="16" height="16" viewBox="0 0 16 16"><path d="M6.122.392a1.75 1.75 0 011.756 0l5.25 3.045c.54.313.872.89.872 1.514V7.25a.75.75 0 01-1.5 0V5.677L7.75 8.432v6.384a1 1 0 01-1.502.865L.872 12.563A1.75 1.75 0 010 11.049V4.951c0-.624.332-1.2.872-1.514zM7.125 1.69a.248.248 0 00-.25 0l-4.63 2.685L7 7.133l4.755-2.758zM1.5 11.049a.25.25 0 00.125.216l4.625 2.683V8.432L1.5 5.677zm11.672-.282L11.999 12h3.251a.75.75 0 010 1.5h-3.251l1.173 1.233a.75.75 0 11-1.087 1.034l-2.378-2.5a.75.75 0 010-1.034l2.378-2.5a.75.75 0 011.087 1.034z"/></svg>

<svg xmlns="http://www.w3.org/2000/svg" width="16" height="16" viewBox="0 0 16 16">
  <defs/>
  <path d="M6.122,0.392 C6.665,0.077 7.335,0.077 7.878,0.392 L13.128,3.437 C13.668,3.75 14,4.327 14,4.951 L14,7.25 C14,7.664 13.664,8 13.25,8 C12.836,8 12.5,7.664 12.5,7.25 L12.5,5.677 L7.75,8.432 L7.75,14.816 C7.75,15.174 7.559,15.504 7.249,15.683 C6.939,15.861 6.557,15.861 6.248,15.681 L0.872,12.563 C0.332,12.25 0,11.673 0,11.049 L0,4.951 C0,4.327 0.332,3.751 0.872,3.437 Z M7.125,1.69 C7.048,1.645 6.952,1.645 6.875,1.69 L2.245,4.375 L7,7.133 L11.755,4.375 Z M1.5,11.049 C1.5,11.138 1.548,11.22 1.625,11.265 L6.25,13.948 L6.25,8.432 L1.5,5.677 Z M13.172,10.767 L11.999,12 L15.25,12 C15.664,12 16,12.336 16,12.75 C16,13.164 15.664,13.5 15.25,13.5 L11.999,13.5 L13.172,14.733 C13.458,15.033 13.446,15.508 13.146,15.793 C12.845,16.079 12.371,16.067 12.085,15.767 L9.707,13.267 C9.431,12.977 9.431,12.523 9.707,12.233 L12.085,9.733 C12.371,9.433 12.845,9.421 13.146,9.707 C13.446,9.992 13.458,10.467 13.172,10.767 Z"/>
</svg>
